icon-themes/breeze_svg/cmd/lc_dbnewviewsql.svg

<svg viewBox="0 0 24 24" xmlns="http://www.w3.org/2000/svg"><path d="m5.7070312 5-.7070312.7070312 5.292969 5.2929688-5.292969 5.292969.7070312.707031 5.2929688-5.292969.707031-.707031-.707031-.707031zm6.2929688 13v1h7v-1z" fill="#4d4d4d"/></svg>

<svg xmlns="http://www.w3.org/2000/svg" viewBox="0 0 24 24">
 <path 
     style="fill:#4d4d4d" 
     d="M 5.7070312 5 L 5 5.7070312 L 10.292969 11 L 5 16.292969 L 5.7070312 17 L 11 11.707031 L 11.707031 11 L 11 10.292969 L 5.7070312 5 z M 12 18 L 12 19 L 19 19 L 19 18 L 12 18 z "
     />
 </svg>
